public/icon/menu-admission.svg

<svg width="30" height="30" fill="none" xmlns="http://www.w3.org/2000/svg"><path d="M14.187 4.795a2.81 2.81 0 0 0-.124.83c0 .518.42.938.937.938h5.625c.518 0 .938-.42.938-.938a2.81 2.81 0 0 0-.125-.83m-7.251 0a2.814 2.814 0 0 1 2.688-1.982h1.875c1.265 0 2.334.834 2.688 1.982m-7.251 0c-.47.028-.938.062-1.404.1-1.414.118-2.47 1.322-2.47 2.74v2.678m11.125-5.518c.47.028.938.062 1.404.1 1.414.118 2.47 1.322 2.47 2.74v12.99a2.813 2.813 0 0 1-2.812 2.813h-2.813m-9.375-13.125H6.095c-.777 0-1.407.63-1.407 1.406V25.78c0 .777.63 1.407 1.407 1.407H18.28c.777 0 1.407-.63 1.407-1.407v-2.343m-9.375-13.125h7.968c.777 0 1.407.63 1.407 1.406v11.719m-10.313-3.75 1.875 1.875L15 16.875" stroke="#FFF" stroke-width="1.5" stroke-linecap="round" stroke-linejoin="round"/></svg>

<?xml version="1.0" encoding="UTF-8"?>
<svg id="Layer_1" xmlns="http://www.w3.org/2000/svg" version="1.1" viewBox="0 0 30 30">
  <!-- Generator: Adobe Illustrator 29.6.1, SVG Export Plug-In . SVG Version: 2.1.1 Build 9)  -->
  <defs>
    <style>
      .st0 {
        fill: none;
        stroke: #000;
        stroke-linecap: round;
        stroke-linejoin: round;
        stroke-width: 1.5px;
      }
    </style>
  </defs>
  <path class="st0" d="M14.19,4.8c-.08.27-.12.55-.12.83,0,.52.42.94.94.94h5.62c.52,0,.94-.42.94-.94,0-.28-.04-.56-.12-.83M14.19,4.8c.36-1.18,1.45-1.98,2.69-1.98h1.88c1.26,0,2.33.83,2.69,1.98M14.19,4.8c-.47.03-.94.06-1.4.1-1.41.12-2.47,1.32-2.47,2.74v2.68M21.44,4.79c.47.03.94.06,1.4.1,1.41.12,2.47,1.32,2.47,2.74v12.99c0,1.55-1.26,2.81-2.81,2.81h-2.81M10.31,10.31h-4.22c-.78,0-1.41.63-1.41,1.41v14.06c0,.78.63,1.41,1.41,1.41h12.19c.78,0,1.41-.63,1.41-1.41v-2.34M10.31,10.31h7.97c.78,0,1.41.63,1.41,1.41v11.72M9.37,19.69l1.88,1.88,3.75-4.69"/>
</svg>
